svgs/material_catalog.svg

<svg width="192" height="192" viewBox="0 0 192 192" fill="none" xmlns="http://www.w3.org/2000/svg">
<path fill-rule="evenodd" clip-rule="evenodd" d="M112 28H28L28 112H56.4952C56.1683 114.621 56 117.291 56 120C56 121.343 56.0414 122.677 56.123 124H28C21.3726 124 16 118.627 16 112V28C16 21.3726 21.3726 16 28 16H112C118.627 16 124 21.3726 124 28V56.123C122.677 56.0414 121.343 56 120 56C117.291 56 114.621 56.1683 112 56.4952V28ZM84.4444 120C84.4444 117.249 84.7568 114.571 85.3481 112H112V85.3481C114.571 84.7568 117.249 84.4444 120 84.4444C121.352 84.4444 122.687 84.5199 124 84.6669V112C124 118.627 118.627 124 112 124H84.6669C84.5199 122.687 84.4444 121.352 84.4444 120ZM163.556 120C163.556 144.055 144.055 163.556 120 163.556C95.9449 163.556 76.4444 144.055 76.4444 120C76.4444 95.9449 95.9449 76.4444 120 76.4444C144.055 76.4444 163.556 95.9449 163.556 120ZM176 120C176 150.928 150.928 176 120 176C89.0721 176 64 150.928 64 120C64 89.0721 89.0721 64 120 64C150.928 64 176 89.0721 176 120Z" fill="black"/>
</svg>

<svg xmlns="http://www.w3.org/2000/svg" width="192" height="192" fill="none" xmlns:v="https://vecta.io/nano"><path fill-rule="evenodd" d="M112 28H28v84h28.495a64.62 64.62 0 0 0-.495 8l.123 4H28c-6.627 0-12-5.373-12-12V28c0-6.627 5.373-12 12-12h84c6.627 0 12 5.373 12 12v28.123c-1.323-.082-2.657-.123-4-.123a64.62 64.62 0 0 0-8 .495V28zm-27.556 92a35.66 35.66 0 0 1 .904-8H112V85.348a35.66 35.66 0 0 1 8-.904c1.352 0 2.687.076 4 .222V112c0 6.627-5.373 12-12 12H84.667c-.147-1.313-.222-2.648-.222-4zm79.112 0c0 24.055-19.501 43.556-43.556 43.556S76.444 144.055 76.444 120 95.945 76.444 120 76.444 163.556 95.945 163.556 120zM176 120c0 30.928-25.072 56-56 56s-56-25.072-56-56 25.072-56 56-56 56 25.072 56 56z" fill="#000"/></svg>
